src/shared/assets/Transfer.svg

<svg width="20" height="21" viewBox="0 0 20 21" fill="none" xmlns="http://www.w3.org/2000/svg">
<path fill-rule="evenodd" clip-rule="evenodd" d="M2.01871 18.5047H17.9809V5.75715H16V3.76187H18.8677C19.4799 3.76187 19.9762 4.25816 19.9762 4.87036V19.3915C19.9762 20.0037 19.4799 20.5 18.8677 20.5H1.13192C0.519724 20.5 0.0234375 20.0037 0.0234375 19.3915V4.87036C0.0234375 4.25816 0.519723 3.76187 1.13192 3.76187H4V5.75715H2.01871V18.5047ZM5.93922 5.49506C6.32882 5.88466 6.96049 5.88466 7.35009 5.49506L9.00192 3.84323V10.6345C9.00192 11.1854 9.44858 11.6321 9.99955 11.6321C10.5505 11.6321 10.9972 11.1854 10.9972 10.6345V3.9361L12.5562 5.49514C12.9458 5.88474 13.5775 5.88474 13.9671 5.49514C14.3567 5.10554 14.3567 4.47387 13.9671 4.08427L10.6751 0.792236C10.4767 0.593889 10.2156 0.496521 9.95569 0.500134C9.69408 0.495178 9.43088 0.592518 9.23125 0.792154L5.93922 4.08419C5.54962 4.47379 5.54962 5.10546 5.93922 5.49506Z" fill="currentColor"/>
</svg>

<svg xmlns="http://www.w3.org/2000/svg" width="20" height="21" fill="none"><path fill="currentColor" fill-rule="evenodd" d="M2.019 18.505H17.98V5.757H16V3.762h2.868c.612 0 1.108.496 1.108 1.108v14.521c0 .613-.496 1.109-1.108 1.109H1.132a1.108 1.108 0 0 1-1.109-1.108V4.87c0-.612.497-1.108 1.109-1.108H4v1.995H2.019v12.748Zm3.92-13.01a.998.998 0 0 0 1.411 0l1.652-1.652v6.791a.998.998 0 0 0 1.995 0V3.936l1.56 1.56a.998.998 0 0 0 1.41-1.412L10.675.792A.995.995 0 0 0 9.955.5a.995.995 0 0 0-.724.292L5.94 4.084a.998.998 0 0 0 0 1.411Z" clip-rule="evenodd"/></svg>
